build/img/logo-mob.svg

<svg width="38" height="42" viewBox="0 0 38 42" fill="none" xmlns="http://www.w3.org/2000/svg">
<path d="M31.7478 17.463L26.3447 23.5318C26.0008 23.898 25.5792 24.1864 25.1354 24.3639H27.8758C28.8299 24.3639 29.7397 23.9756 30.3721 23.2988L35.7641 17.2522C35.8195 17.1968 35.8861 17.1413 35.9527 17.0969H32.5799C32.2803 17.0969 32.003 17.2079 31.7922 17.4187L31.7478 17.463Z" fill="white"/>
<path d="M13.2751 19.3268V39.7854C13.2751 40.5731 13.9186 41.2166 14.7064 41.2166C15.4941 41.2166 16.1376 40.5731 16.1376 39.7854V19.3268C16.1376 19.3157 16.1376 19.3046 16.1376 19.2935V19.2824C16.1487 18.9052 16.2374 18.528 16.415 18.1952C16.6701 17.6959 17.0917 17.3076 17.5799 17.0857H15.5385C14.2848 17.0857 13.2751 18.0953 13.2751 19.3268Z" fill="white"/>
<path d="M2.04734 27.0488C3.66716 30.3772 6.19674 33.1398 9.38092 35.0259V32.6294C9.38092 31.9749 9.09245 31.3536 8.60429 30.932C5.07618 27.892 3.04586 23.4763 3.04586 18.8277C3.04586 14.5562 4.73225 10.551 7.78328 7.52219C10.8343 4.50444 14.8617 2.85133 19.1331 2.89571C22.4283 2.9179 25.5791 3.9497 28.2419 5.84689C30.838 7.6997 32.7907 10.2404 33.9112 13.2027C34.6213 13.1805 35.2648 12.8033 35.6309 12.193C36.0081 11.5607 36.0414 10.7951 35.6975 10.1405C33.9001 6.70118 31.0155 3.82766 27.5651 2.06361C24.9024 0.698965 21.9956 0 19 0C17.9016 0 16.7922 0.0998521 15.6716 0.288462C12.2212 0.876479 8.72633 2.80695 5.81953 5.71376C2.92382 8.62056 1.00444 12.1265 0.427513 15.5769C-0.227073 19.5488 0.327661 23.5096 2.04734 27.0488Z" fill="white"/>
<path d="M18.5895 17.0747C17.7685 17.0747 17.0252 17.5074 16.6368 18.2175L21.7182 23.2988C22.3284 23.9756 23.1272 24.3528 23.9704 24.3528C24.7138 24.3528 25.4349 24.0754 26.0007 23.554L20.1428 17.696C19.7212 17.2966 19.1775 17.0747 18.5895 17.0747Z" fill="white"/>
<path d="M36.6849 17.0857C36.3964 17.0857 36.1191 17.1966 35.9194 17.3963L35.875 17.4407L34.943 18.4836V18.8276C34.943 26.5495 29.4401 33.1508 21.8513 34.5154C20.7862 34.704 20.0207 35.636 20.0207 36.7122V37.6219C24.8136 37.3668 29.2847 35.3142 32.6131 31.8305C35.9748 28.3135 37.8387 23.687 37.8387 18.8165C37.8387 18.6057 37.8387 18.3727 37.8276 18.1064C37.7722 17.5406 37.2729 17.0857 36.6849 17.0857Z" fill="white"/>
</svg>

<svg width="38" height="42" viewBox="0 0 38 42" fill="none" xmlns="http://www.w3.org/2000/svg"><path d="M31.748 17.463l-5.403 6.069a3.426 3.426 0 01-1.21.832h2.74a3.42 3.42 0 002.497-1.065l5.392-6.047a1.3 1.3 0 01.189-.155H32.58c-.3 0-.577.11-.788.322l-.044.044zm-18.473 1.864v20.458c0 .788.644 1.432 1.431 1.432.788 0 1.432-.644 1.432-1.432V19.283a2.468 2.468 0 011.442-2.197h-2.041a2.254 2.254 0 00-2.264 2.24z" fill="#fff"/><path d="M2.047 27.049a18.793 18.793 0 007.334 7.977v-2.397a2.25 2.25 0 00-.777-1.697 15.978 15.978 0 01-5.558-12.104c0-4.272 1.686-8.277 4.737-11.306 3.051-3.018 7.079-4.67 11.35-4.626a15.816 15.816 0 019.109 2.95 15.92 15.92 0 015.67 7.357c.71-.022 1.353-.4 1.719-1.01.377-.632.41-1.398.066-2.053-1.797-3.439-4.682-6.312-8.132-8.076A18.683 18.683 0 0019 0c-1.098 0-2.208.1-3.328.288-3.45.588-6.946 2.519-9.852 5.426C2.924 8.62 1.004 12.126.428 15.577c-.655 3.972-.1 7.933 1.62 11.472z" fill="#fff"/><path d="M18.59 17.075c-.822 0-1.565.432-1.953 1.143l5.081 5.08c.61.678 1.41 1.055 2.252 1.055.744 0 1.465-.278 2.03-.799l-5.857-5.858a2.237 2.237 0 00-1.553-.621zm18.095.011c-.289 0-.566.11-.766.31l-.044.045-.932 1.043v.344c0 7.721-5.503 14.323-13.092 15.687a2.226 2.226 0 00-1.83 2.197v.91a18.728 18.728 0 0012.592-5.791 18.77 18.77 0 005.226-13.014c0-.211 0-.444-.011-.71a1.153 1.153 0 00-1.143-1.021z" fill="#fff"/></svg>
